X: 39883
T: This Is My Love, Do You Like Her?
R: jig
M: 6/8
K: Edorian
|:EFE EDE|FEF A3|B2B BAB|d3 ede|
f2A BcB|AFD DEF|G2B AGF|E3 E3:|
|:efe edB|d3 dBd|efe edB|d3 ede|
f2A BcB|AFD DEF|G2B AGF|E3 E3:|

